packages/icons/svg/Social_SocialNetwork_Facebook_48px.svg

<svg xmlns="http://www.w3.org/2000/svg" viewBox="0 0 48 48"><path d="M41 9v30a2 2 0 01-2 2h-8.54V27.84h4.41l.66-5.13h-5.07v-3.28a2.87 2.87 0 01.54-1.86 2.6 2.6 0 012-.57h2.7v-4.65a28.53 28.53 0 00-3.94-.2A6.6 6.6 0 0027 13.92a6.7 6.7 0 00-1.8 5v3.79h-4.48v5.13h4.43V41H9a2 2 0 01-2-2V9a2 2 0 012-2h30a2 2 0 012 2z"/></svg>

<svg xmlns="http://www.w3.org/2000/svg" viewBox="0 0 48 48"><defs></defs><g id="Icon"><path  d="M41,9V39a2,2,0,0,1-2,2H30.46V27.84h4.41l.66-5.13H30.46V19.43A2.87,2.87,0,0,1,31,17.57,2.6,2.6,0,0,1,33,17l2.7,0V12.35a28.53,28.53,0,0,0-3.94-.2A6.6,6.6,0,0,0,27,13.92a6.7,6.7,0,0,0-1.8,5v3.79H20.72v5.13h4.43V41H9a2,2,0,0,1-2-2V9A2,2,0,0,1,9,7H39A2,2,0,0,1,41,9Z"/></g></svg>
